X:7904
T:Eccosaise
T:D. 529/8
C:Franz Schubert
O:Austria
A:Vienna
Z:Transcribed by Frank Nordberg - http://www.musicaviva.com
F:http://abc.musicaviva.com/tunes/schubert-franz/schubert-eccos-529-08-1.abc
M:2/4
L:1/8
K:D
%L: accent
("^Allegretto graz|oso"Ad) .d.d|.d2.d2|(c2e2)|LA4|
.d2(df|a2f2)|(e^def|e4)|
(Ad) .d.d|.d2.d2|(c2e2)|LA4|
.d2(df|a2f2)|(e^def|=d4)|
(aba2|.f2).f2|(gag2|.e2).e2|
.f2(df|.a2).f2|(e^def|e4)|
(aba2|.f2).f2|(gag2|e4)|
.f2(df|.a2).f2|(e^def|=d4)|]
W:
W:
W:  From Musica Viva - http://www.musicaviva.com
W:  the Internet center for free sheet music downloads.
